svg/emoji_u1f691.svg

<?xml version="1.0" encoding="UTF-8" standalone="no"?>
<!DOCTYPE svg PUBLIC "-//W3C//DTD SVG 1.1//EN" "http://www.w3.org/Graphics/SVG/1.1/DTD/svg11.dtd">
<svg width="100%" height="100%" viewBox="0 0 128 128" version="1.1" xmlns="http://www.w3.org/2000/svg" xmlns:xlink="http://www.w3.org/1999/xlink" xml:space="preserve" xmlns:serif="http://www.serif.com/" style="fill-rule:evenodd;clip-rule:evenodd;stroke-linejoin:round;stroke-miterlimit:2;">
    <path id="a" d="M108.04,112.87L20.75,112.87C11.78,112.87 1.3,108.14 1.3,94.83C1.3,90.04 2.72,83.06 6.74,79.17C7.89,78.05 9.43,76.96 11.07,75.8C13.04,74.41 15.08,72.96 16.05,71.71C18.36,68.72 19.01,67.63 20.6,65.01L21.71,63.19C26.17,55.9 31.11,47.83 39.04,45.26C42.98,43.99 50.68,43.73 61.84,43.73C63.95,43.73 66.13,43.74 68.35,43.75C73.91,43.77 79.76,43.79 85.5,43.69C86.2,43.68 112.5,43.67 113.21,43.67C123.64,43.67 125.21,63.13 125.48,69.57C125.75,75.82 126.83,100.29 120.3,107.27C116.98,110.82 113.04,112.87 108.04,112.87Z" style="fill:rgb(224,224,224);fill-rule:nonzero;"/>
    <clipPath id="_clip1">
        <path d="M108.04,112.87L20.75,112.87C11.78,112.87 1.3,108.14 1.3,94.83C1.3,90.04 2.72,83.06 6.74,79.17C7.89,78.05 9.43,76.96 11.07,75.8C13.04,74.41 15.08,72.96 16.05,71.71C18.36,68.72 19.01,67.63 20.6,65.01L21.71,63.19C26.17,55.9 31.11,47.83 39.04,45.26C42.98,43.99 50.68,43.73 61.84,43.73C63.95,43.73 66.13,43.74 68.35,43.75C73.91,43.77 79.76,43.79 85.5,43.69C86.2,43.68 112.5,43.67 113.21,43.67C123.64,43.67 125.21,63.13 125.48,69.57C125.75,75.82 126.83,100.29 120.3,107.27C116.98,110.82 113.04,112.87 108.04,112.87Z"/>
    </clipPath>
    <g clip-path="url(#_clip1)">
        <rect x="-3.62" y="81.66" width="134.78" height="6.08" style="fill:rgb(237,108,48);fill-rule:nonzero;"/>
    </g>
    <path d="M62.72,38.87L47.76,38.87C46.2,38.87 44.94,40.14 44.94,41.7L44.94,47.05C44.94,48.61 46.2,49.88 47.76,49.88L62.72,49.88C64.28,49.88 65.55,48.62 65.55,47.05L65.55,41.7C65.55,40.14 64.28,38.87 62.72,38.87Z" style="fill:rgb(224,224,224);fill-rule:nonzero;"/>
    <path d="M46.98,36.27C46.98,29.63 48.96,24.25 55.25,24.25C61.52,24.25 63.52,29.63 63.52,36.27L46.98,36.27Z" style="fill:rgb(237,108,48);fill-rule:nonzero;"/>
    <path d="M41.47,31.05L28.75,25.22C28.34,25.03 27.85,25.04 27.44,25.26C27.04,25.49 26.76,25.88 26.7,26.34L25.59,34.33C25.53,34.79 25.69,35.25 26.02,35.58C26.3,35.85 26.66,36 27.04,36C27.11,36 27.19,35.99 27.26,35.98L41.09,33.82C41.73,33.72 42.22,33.21 42.31,32.58C42.4,31.94 42.06,31.32 41.47,31.05ZM83.79,26.34C83.73,25.88 83.45,25.49 83.04,25.26C82.64,25.04 82.15,25.02 81.73,25.22L69,31.05C68.41,31.32 68.08,31.94 68.16,32.58C68.25,33.21 68.74,33.72 69.38,33.82L83.21,35.98C83.3,35.99 83.38,36 83.45,36C83.83,36 84.2,35.85 84.48,35.58C84.81,35.26 84.96,34.79 84.9,34.33L83.79,26.34Z" style="fill:rgb(237,108,48);fill-rule:nonzero;"/>
    <g transform="matrix(1.14506,0,0,1.14506,-8.7193,-9.92332)">
        <path d="M74.154,58.996C74.154,58.669 74.024,58.356 73.793,58.124C73.562,57.893 73.248,57.763 72.921,57.763L54.093,57.763C53.766,57.763 53.453,57.893 53.222,58.124C52.99,58.356 52.861,58.669 52.861,58.996L52.861,77.824C52.861,78.151 52.99,78.464 53.222,78.696C53.453,78.927 53.766,79.057 54.093,79.057L72.921,79.057C73.248,79.057 73.562,78.927 73.793,78.696C74.024,78.464 74.154,78.151 74.154,77.824L74.154,58.996Z" style="fill:rgb(237,108,48);"/>
    </g>
    <path d="M71.61,64.33L68.09,64.33L68.09,60.8C68.09,60.09 67.51,59.52 66.8,59.52L61.2,59.52C60.5,59.52 59.92,60.09 59.92,60.8L59.92,64.33L56.4,64.33C55.69,64.33 55.11,64.91 55.11,65.61L55.11,71.21C55.11,71.92 55.69,72.49 56.4,72.49L59.92,72.49L59.92,76.02C59.92,76.72 60.5,77.3 61.2,77.3L66.8,77.3C67.5,77.3 68.09,76.72 68.09,76.02L68.09,72.49L71.61,72.49C72.32,72.49 72.89,71.91 72.89,71.21L72.89,65.61C72.89,65.607 72.89,65.603 72.89,65.6C72.89,64.903 72.317,64.33 71.62,64.33C71.617,64.33 71.613,64.33 71.61,64.33Z" style="fill:white;fill-rule:nonzero;"/>
    <path d="M46.36,110.62C46.36,116.33 41.73,120.96 36.01,120.96C30.29,120.96 25.66,116.34 25.66,110.62C25.66,104.9 30.29,100.28 36.01,100.28C41.73,100.28 46.36,104.9 46.36,110.62ZM104.27,110.62C104.27,116.33 99.64,120.96 93.92,120.96C88.2,120.96 83.57,116.34 83.57,110.62C83.57,104.9 88.2,100.28 93.92,100.28C99.64,100.28 104.27,104.9 104.27,110.62Z" style="fill:rgb(47,47,47);fill-rule:nonzero;"/>
    <path d="M45.96,72.02C45.96,73.77 44.53,75.21 42.77,75.21L30.32,75.21C28.57,75.21 27.56,73.84 28.08,72.17C28.25,71.62 28.45,71.08 28.66,70.54C29.181,69.172 29.768,67.83 30.42,66.52C31.29,64.78 32.26,63.09 33.37,61.51C34.57,59.81 35.94,58.22 37.54,56.88C39.12,55.57 40.93,54.52 42.93,54.01C43.57,53.85 44.52,53.55 45.17,53.84C46.46,54.42 45.95,57.24 45.95,58.31L45.95,70.95C45.96,71.31 45.96,71.66 45.96,72.02ZM109.46,52.45L85.95,52.45C84.12,52.45 81.79,52.57 81.53,54.84C81.31,56.74 81.53,58.79 81.53,60.69L81.53,70.07C81.53,71.85 81.14,73.97 83.06,74.82C84.73,75.56 86.92,75.2 88.71,75.2L110.74,75.2C114.76,75.2 116.34,74.96 116.35,70.6C116.36,66.7 114.46,52.45 109.46,52.45Z" style="fill:rgb(64,192,231);fill-rule:nonzero;"/>
    <circle cx="36.01" cy="110.62" r="4.71" style="fill:rgb(97,97,97);"/>
    <circle cx="93.92" cy="110.62" r="4.71" style="fill:rgb(97,97,97);"/>
</svg>

<svg width="128" height="128" xmlns="http://www.w3.org/2000/svg" xmlns:xlink="http://www.w3.org/1999/xlink"><defs><path id="a" d="M108.04 112.87H20.75c-8.97 0-19.45-4.73-19.45-18.04 0-4.79 1.42-11.77 5.44-15.66 1.15-1.12 2.69-2.21 4.33-3.37 1.97-1.39 4.01-2.84 4.98-4.09 2.31-2.99 2.96-4.08 4.55-6.7l1.11-1.82c4.46-7.29 9.4-15.36 17.33-17.93 3.94-1.27 11.64-1.53 22.8-1.53 2.11 0 4.29.01 6.51.02 5.56.02 11.41.04 17.15-.06.7-.01 27-.02 27.71-.02 10.43 0 12 19.46 12.27 25.9.27 6.25 1.35 30.72-5.18 37.7-3.32 3.55-7.26 5.6-12.26 5.6z"/></defs><use xlink:href="#a" overflow="visible" fill="#e0e0e0"/><clipPath id="b"><use xlink:href="#a" overflow="visible"/></clipPath><path clip-path="url(#b)" fill="#ed6c30" d="M-3.62 81.66h134.78v6.08H-3.62z"/><path d="M62.72 38.87H47.76c-1.56 0-2.82 1.27-2.82 2.83v5.35c0 1.56 1.26 2.83 2.82 2.83h14.96c1.56 0 2.83-1.26 2.83-2.83V41.7c0-1.56-1.27-2.83-2.83-2.83z" fill="#e0e0e0"/><defs><path id="c" d="M339.92 44.09c-5.94-4.09-11.99-8.01-18.1-11.84-9.49-5.93-19.37-12.32-30.52-14.49-6.85-1.34-15.55-1.26-22.19 1.23-4.4 1.65-8.53 4.3-11.65 7.84-5.57 6.34-8.97 13.68-11.79 21.57-3.93 11.03-13.59 15.02-19.35 24.84-2.57 4.4-3.86 12.1-3.42 17.22 1.97 22.61 36 23.19 50.82 20.66 7.64-1.3 15.65-5.17 19.33-7.53 8.32-5.35 14.6-12.75 14.6-12.75l35.45-34.9v-6.9c-.01-3.72-3.18-4.95-3.18-4.95z"/></defs><use xlink:href="#c" overflow="visible" fill="#e0e0e0"/><clipPath id="d"><use xlink:href="#c" overflow="visible"/></clipPath><path d="M318.15 54.72c0 2.48-1.28 4.89-3 5.42l-2.09.63c-2.23.68-4.3-1.41-4.3-4.74V43.06c0-3.33 2.07-5.27 4.3-4.44l2.09.78c1.72.65 3 3.16 3 5.64v9.68zm9.59-8.02c0-1.77-.79-3.47-1.85-3.78l-1.23-.38c-1.25-.37-2.37 1.07-2.37 3.24v8.47c0 2.17 1.11 3.66 2.37 3.35l1.23-.3c1.05-.26 1.85-1.9 1.85-3.68V46.7zm5.75.75c0-1.3-.5-2.5-1.17-2.68l-.78-.2c-.8-.21-1.53.92-1.53 2.52v6.28c0 1.61.72 2.64 1.53 2.33l.78-.31c.67-.27 1.17-1.53 1.17-2.84v-5.1zm3.4.36c0-1.01-.3-1.91-.68-2.02l-.44-.12c-.45-.12-.84.75-.84 1.92v4.6c0 1.18.39 1.99.84 1.81l.44-.18c.38-.15.68-1.1.68-2.1v-3.91zm2.13.22c0-.82-.19-1.54-.45-1.61l-.29-.08c-.28-.07-.52.62-.52 1.56v3.62c0 .93.24 1.6.52 1.49l.29-.12c.25-.1.45-.85.45-1.67v-3.19zm1.81.2c0-.65-.13-1.22-.32-1.27l-.2-.06c-.2-.06-.37.49-.37 1.23V51c0 .73.17 1.26.37 1.17l.2-.09c.19-.08.32-.67.32-1.32v-2.53z" clip-path="url(#d)" fill="#40c0e7"/><path d="M223.49 89.45s3.75 7.89 15.78 11.24c12.03 3.35 29.38 4.53 39.64-.59 10.25-5.13 30.37-19.92 30.37-19.92l34.12-26.62v3.55l-42.41 41.81s-13.01 13.61-28.4 13.61c-15.38 0-29.21.85-37.47-3.75-15.57-8.69-11.63-19.33-11.63-19.33z" clip-path="url(#d)" fill="#78a3ad"/><path d="M345.68 51.95c-.25-.12-.73-.14-1.06-.06 0 0-.11.07-.3.21-.11.01-.22 0-.31.02-.22.06-22.6 16.63-42.95 32.84-19.7 15.69-38.24 20.11-60.12 14.34-14.82-3.91-17.49-11.44-17.85-15.22.02-.15.04-.27.04-.31.03-.15-.03-.28-.08-.41-.02-.87.07-1.44.08-1.54a.75.75 0 0 0-.6-.88c-.41-.08-.8.18-.88.6-.01.03-.17.93-.05 2.33-.22 2.16-.43 13.74 18.95 18.85 22.39 5.91 41.5 1.6 61.45-14.62 21.39-17.38 43.3-35.74 43.53-35.8.33-.07.4-.24.15-.35z" clip-path="url(#d)" fill="#bdbdbd"/><path d="M342.49 51.52s-11.82 5.58-21.08 9.13c-8.71 3.33-14.1 4.83-14.1 4.83l-1.86 11.72 37.04-24.52v-1.16z" clip-path="url(#d)" fill="#006ca2"/><g><defs><path id="e" d="M261.09 38.36c1.03 2.01 4.46 1.94 6.32 2.03 3.2.17 6.32.21 9.47.07 2.78-.11 4.94-.23 7.26-1.93 1.61-1.18 3.11-2.29 4.8-3.12 2.36-1.15 4.41 0 5.2 2.95.43 1.63.47 3.55.16 5.26-1.65 9.01-7.48 17.25-15.94 19.45-2.83.73-5.75.96-8.67.95-5.62-.01-12.18-.29-17.38-2.75-2.67-1.27-4.05-3.28-4.05-6.8-.01-3.73 1.43-7.53 3.15-10.73.77-1.43 1.52-3.05 2.46-4.29 1.15-1.53 2.77-3.31 4.36-4.09 2.77-1.39 2.07.73 2.77 2.79.02.07.05.14.09.21z"/></defs><use xlink:href="#e" overflow="visible" fill="#40c0e7"/></g><path d="M275.77 82.27c-.13 2.66-2.25 5.58-4.91 6.84-2.88 1.38-5.81.57-6.4-2.2-.68-3.19 1.99-7.25 5.71-8.46 3.37-1.11 5.75.8 5.6 3.82zM239.76 74.98c.58 2.42-.41 5.38-2.01 7.05-1.56 1.63-3.7 2.07-5.13.79-1.9-1.72-2.05-5.92.48-8.93 2.68-3.23 5.87-2.24 6.66 1.09z" fill="#fcc21b"/><path d="M46.98 36.27c0-6.64 1.98-12.02 8.27-12.02 6.27 0 8.27 5.38 8.27 12.02H46.98z" fill="#ed6c30"/><g fill="#ed6c30"><path d="M41.47 31.05l-12.72-5.83c-.41-.19-.9-.18-1.31.04-.4.23-.68.62-.74 1.08l-1.11 7.99c-.06.46.1.92.43 1.25.28.27.64.42 1.02.42.07 0 .15-.01.22-.02l13.83-2.16c.64-.1 1.13-.61 1.22-1.24.09-.64-.25-1.26-.84-1.53zM83.79 26.34c-.06-.46-.34-.85-.75-1.08-.4-.22-.89-.24-1.31-.04L69 31.05c-.59.27-.92.89-.84 1.53.09.63.58 1.14 1.22 1.24l13.83 2.16c.09.01.17.02.24.02.38 0 .75-.15 1.03-.42.33-.32.48-.79.42-1.25l-1.11-7.99z"/></g><path d="M71.61 64.33h-3.52V60.8c0-.71-.58-1.28-1.29-1.28h-5.6c-.7 0-1.28.57-1.28 1.28v3.53H56.4c-.71 0-1.29.58-1.29 1.28v5.6c0 .71.58 1.28 1.29 1.28h3.52v3.53c0 .7.58 1.28 1.28 1.28h5.6c.7 0 1.29-.58 1.29-1.28v-3.53h3.52c.71 0 1.28-.58 1.28-1.28v-5.6a1.27 1.27 0 0 0-1.28-1.28z" fill="#ed6c30"/><path d="M46.36 110.62c0 5.71-4.63 10.34-10.35 10.34s-10.35-4.62-10.35-10.34 4.63-10.34 10.35-10.34 10.35 4.62 10.35 10.34zM104.27 110.62c0 5.71-4.63 10.34-10.35 10.34s-10.35-4.62-10.35-10.34 4.63-10.34 10.35-10.34 10.35 4.62 10.35 10.34z" fill="#2f2f2f"/><path d="M45.96 72.02c0 1.75-1.43 3.19-3.19 3.19H30.32c-1.75 0-2.76-1.37-2.24-3.04.17-.55.37-1.09.58-1.63a44.87 44.87 0 0 1 1.76-4.02c.87-1.74 1.84-3.43 2.95-5.01 1.2-1.7 2.57-3.29 4.17-4.63 1.58-1.31 3.39-2.36 5.39-2.87.64-.16 1.59-.46 2.24-.17 1.29.58.78 3.4.78 4.47v12.64c.01.36.01.71.01 1.07zm63.5-19.57H85.95c-1.83 0-4.16.12-4.42 2.39-.22 1.9 0 3.95 0 5.85v9.38c0 1.78-.39 3.9 1.53 4.75 1.67.74 3.86.38 5.65.38h22.03c4.02 0 5.6-.24 5.61-4.6.01-3.9-1.89-18.15-6.89-18.15z" fill="#40c0e7"/><g><path d="M-108.95 36.27c0-6.64 1.98-12.02 8.27-12.02 6.27 0 8.27 5.38 8.27 12.02h-16.54z" fill="#ed6c30"/><path d="M-93.2 38.87h-14.96c-1.56 0-2.82 1.27-2.82 2.83v5.35c0 1.56 1.26 2.83 2.82 2.83h14.96c1.56 0 2.83-1.26 2.83-2.83V41.7a2.84 2.84 0 0 0-2.83-2.83z" fill="#78a3ad"/><g fill="#ed6c30"><path d="M-114.46 31.05l-12.72-5.83c-.41-.19-.9-.18-1.31.04-.4.23-.68.62-.74 1.08l-1.11 7.99c-.06.46.1.92.43 1.25.28.27.64.42 1.02.42.07 0 .15-.01.22-.02l13.83-2.16c.64-.1 1.13-.61 1.22-1.24.09-.64-.25-1.26-.84-1.53zM-72.13 26.34c-.06-.46-.34-.85-.75-1.08-.4-.22-.89-.24-1.31-.04l-12.73 5.83c-.59.27-.92.89-.84 1.53.09.63.58 1.14 1.22 1.24l13.83 2.16c.07.01.15.02.22.02.38 0 .75-.15 1.03-.42.33-.32.48-.79.42-1.25l-1.09-7.99z"/></g><path d="M-32.66 69.94c-.68-3.98-1.99-7.91-4.22-11.3-7.49-11.42-21.22-12.93-33.5-12.71-18.96.34-39.17-.68-45.8 1.47-7.2 2.32-11.89 10.06-16.1 16.96-2.47 4.02-2.93 4.99-5.8 8.71-2.04 2.64-7.08 5.33-9.53 7.7-3.37 3.26-4.76 9.43-4.76 14.04 0 12.09 9.58 15.8 17.2 15.8h87.28c16.01.01 18.37-22.14 15.23-40.67z" fill="#fff"/><path fill="#ed6c30" d="M-31.68 87.74h-120.95l3.74-6.08h117.58zM-84.31 64.33h-3.52V60.8c0-.71-.58-1.28-1.29-1.28h-5.6c-.7 0-1.28.57-1.28 1.28v3.53h-3.52c-.71 0-1.29.58-1.29 1.28v5.6c0 .71.58 1.28 1.29 1.28H-96v3.53c0 .7.58 1.28 1.28 1.28h5.6c.7 0 1.29-.58 1.29-1.28v-3.53h3.52c.71 0 1.28-.58 1.28-1.28v-5.6c0-.71-.57-1.28-1.28-1.28z"/><path d="M-47.89 112.87h-87.29c-8.97 0-19.45-4.73-19.45-18.04 0-4.79 1.42-11.77 5.44-15.66 1.15-1.12 2.69-2.21 4.33-3.37 1.97-1.39 4.01-2.84 4.98-4.09 2.31-2.99 2.96-4.08 4.55-6.7l1.11-1.82c4.46-7.29 9.4-15.36 17.33-17.93 3.94-1.27 11.64-1.53 22.8-1.53 2.11 0 4.29.01 6.51.02 5.56.02 11.41.04 17.15-.06.7-.01 1.4-.02 2.11-.02 10.43 0 25.22 1.42 33.31 13.74 2.23 3.41 3.77 7.5 4.56 12.16 1.04 6.17 3.76 27.12-5.18 37.7-3.13 3.71-7.25 5.6-12.26 5.6zm-46.2-64.65c-8.4 0-17.67.1-21.41 1.31-6.35 2.05-10.83 9.38-14.78 15.84l-1.19 1.97c-1.58 2.61-2.38 3.92-4.84 7.12-1.38 1.79-3.7 3.43-5.94 5.01-1.49 1.05-2.89 2.05-3.8 2.93-2.81 2.72-4.07 8.21-4.07 12.43 0 12.57 11.44 13.55 14.95 13.55h87.29c3.67 0 6.56-1.31 8.84-4 6.11-7.24 6.17-22.34 4.17-34.05-.69-4.05-2-7.56-3.88-10.44-6.81-10.38-19.37-11.71-29.55-11.71-.68 0-1.36.01-2.04.02-5.76.11-11.66.08-17.25.06-2.22-.03-4.4-.04-6.5-.04z" fill="#78a3ad"/><path d="M-109.56 110.62c0 5.71-4.63 10.34-10.35 10.34s-10.35-4.62-10.35-10.34 4.63-10.34 10.35-10.34 10.35 4.62 10.35 10.34zM-51.65 110.62c0 5.71-4.63 10.34-10.35 10.34s-10.35-4.62-10.35-10.34 4.63-10.34 10.35-10.34c5.71 0 10.35 4.62 10.35 10.34z" fill="#2f2f2f"/><path d="M-109.97 72.02c0 1.75-1.43 3.19-3.19 3.19h-12.45c-1.75 0-2.76-1.37-2.24-3.04.17-.55.37-1.09.58-1.63a44.87 44.87 0 0 1 1.76-4.02c.87-1.74 1.84-3.43 2.95-5.01 1.2-1.7 2.57-3.29 4.17-4.63 1.58-1.31 3.39-2.36 5.39-2.87.64-.16 1.59-.46 2.24-.17 1.29.58.78 3.4.78 4.47v12.64c.01.36.01.71.01 1.07zm52.89-18.94c-4.26-.7-8.77-.63-12.89-.63-1.83 0-4.16.12-4.42 2.39-.22 1.9 0 3.95 0 5.85v9.38c0 1.78-.39 3.9 1.53 4.75 1.67.74 3.86.38 5.65.38h22.03c4.02 0 5.6-.24 5.61-4.6.02-3.9-2.31-7.76-4.69-10.75-3.29-4.13-7.88-5.96-12.82-6.77z" fill="#40c0e7"/></g><circle cx="36.01" cy="110.62" r="4.71" fill="#616161"/><circle cx="93.92" cy="110.62" r="4.71" fill="#616161"/></svg>
